!!!OTL: ES GIENG A MAIDL NACH HOLZ
!!!ARE: Europa, Mitteleuropa, Deutschland; France, Elsass
!!!SCT: E0073A
!!!YEM: Copyright 1995, estate of Helmut Schaffrath.
**kern
*ICvox
*Ivox
*M2/4
*k[f#]
*G:
{8d
=1
8.b
16b
8a
8g
=2
8.cc
16cc
8f#}
{8f#
=3
8.cc
16cc
8b
8a
=4
4dd
8r}
{8b
=5
8.dd
16dd
8cc
8b
=6
8.ee
16ee
8f#}
{8e
=7
8d
8cc
8b
8a
=8
4g
8r}
{8dd
=9
8b
8dd
8.gg
16dd
=10
8.ff#
16ee
8ee}
{8ee
=11
8dd
8d
8b
8a
=12
4g
8r}
==
!!!AGN: erzaehlendes Volks - Lied, Sage, Liebe, Ballade ?
!!!ONB: ESAC (Essen Associative Code) Database: ERK1
!!!AMT: simple duple
!!!AIN: vox
!!!EED: Helmut Schaffrath
!!!EEV: 1.0
*-
